mobile/apps/auth/assets/custom-icons/icons/idrive.svg

<svg xmlns="http://www.w3.org/2000/svg" viewBox="0 0 140 184.7"><defs><clipPath id="a"><path d="M-.464 0h140.55v184.711H-.464V0Zm0 0" style="stroke-width:.998px"/></clipPath></defs><path d="M130.418 80.504c-.499-.899-.9-1.699-1.495-2.399-3.291-5-7.477-9-12.461-11.902-2.99-1.898-6.382-3.199-9.968-4.098L61.638 50.004c-3.489-.899-6.978-1.399-10.268-1.399-6.779-.101-13.258 1.7-19.637 5.399a9.754 9.754 0 0 0-1.693 1.101c-2.991 1.899-5.584 4-7.877 6.598-4.186 4.402-7.075 9.902-8.672 16.199l-12.063 45c-2.788 10.5-1.495 20.5 3.89 29.899 5.381 9.5 13.356 15.601 23.923 18.402l44.954 12.098c10.467 2.801 20.338 1.402 29.706-4 9.47-5.399 15.552-13.399 18.441-23.797l12.063-45c2.492-9.703 1.694-18.801-2.691-27.602-.401-.898-.798-1.699-1.296-2.398Zm1.495-53.102c-7.476-13-18.441-21.5-33.093-25.398C84.265-1.895 70.508-.098 57.452 7.402c-12.959 7.602-21.431 18.703-25.321 33.301a93.99 93.99 0 0 0-1.496 6.699c7.776-4 15.354-5.797 22.83-5.5 2.788-6.797 7.573-12.097 14.154-16 8.071-4.597 16.646-5.797 25.718-3.398 9.069 2.5 15.949 7.699 20.532 15.801 3.789 6.597 5.183 13.5 4.388 20.8 6.18 3.399 11.861 9.098 16.946 16.797.896-2.199 1.694-4.398 2.391-6.797 3.687-14.601 1.892-28.601-5.681-41.703" clip-path="url(#a)" style="stroke:none;fill-rule:nonzero;fill:#ef4441;fill-opacity:1;stroke-width:.998px"/><path d="M50.933 108.102h34.402c-.5-5.7-2-10-4.699-12.801-2.903-2.996-7.102-4.496-12.5-4.496-4.903 0-9 1.5-12.102 4.496-3.199 3.101-4.898 7.301-5.101 12.801m40.5 24.902h16.902c-2.5 8.898-7.199 15.699-14.199 20.398-7 4.899-15.703 7.301-26.301 7.301-12.801 0-22.801-3.902-30-11.801-7.199-7.699-10.801-18.601-10.801-32.898 0-13.602 3.5-24.199 10.5-31.899 7.199-7.902 17.199-11.8 30-11.8 13.5 0 24 3.8 31.399 11.5 7.203 7.898 10.8 18.797 10.8 32.898v3.5c0 1.098-.097 1.801-.3 2.199H51.034c.199 6.602 1.899 11.5 5.102 14.7 2.898 3.402 7.297 5.101 13.199 5.101 3.801 0 7.098-.699 9.801-2.199.699-.203 1.297-.602 1.898-1.102.602-.5 1.199-1.101 1.899-1.8.203-.598 1.101-1.5 2.5-2.5 1.203-1 3.3-1.598 6-1.598" style="stroke:none;fill-rule:nonzero;fill:#fff;fill-opacity:1;stroke-width:1px"/></svg>

<svg xmlns="http://www.w3.org/2000/svg" xmlns:xlink="http://www.w3.org/1999/xlink" version="1.1" viewBox="0 0 140 184.7"><defs><clipPath id="clip1"><path d="M 457 57 L 492.601563 57 L 492.601563 93 L 457 93 Z M 457 57 "/></clipPath><clipPath id="clip2"><path d="M -0.464 0 L 140.086 0 L 140.086 184.711 L -0.464 184.711 L -0.464 0 Z M -0.464 0" style="stroke-width: 0.998px;"/></clipPath></defs><path style="stroke: none; fill-rule: nonzero; fill: rgb(239, 68, 65); fill-opacity: 1; stroke-width: 0.998px;" d="M 130.418 80.504 C 129.919 79.605 129.518 78.805 128.923 78.105 C 125.632 73.105 121.446 69.105 116.462 66.203 C 113.472 64.305 110.08 63.004 106.494 62.105 L 61.638 50.004 C 58.149 49.105 54.66 48.605 51.37 48.605 C 44.591 48.504 38.112 50.305 31.733 54.004 C 31.134 54.305 30.538 54.703 30.04 55.105 C 27.049 57.004 24.456 59.105 22.163 61.703 C 17.977 66.105 15.088 71.605 13.491 77.902 L 1.428 122.902 C -1.36 133.402 -0.067 143.402 5.318 152.801 C 10.699 162.301 18.674 168.402 29.241 171.203 L 74.195 183.301 C 84.662 186.102 94.533 184.703 103.901 179.301 C 113.371 173.902 119.453 165.902 122.342 155.504 L 134.405 110.504 C 136.897 100.801 136.099 91.703 131.714 82.902 C 131.313 82.004 130.916 81.203 130.418 80.504 Z M 131.913 27.402 C 124.437 14.402 113.472 5.902 98.82 2.004 C 84.265 -1.895 70.508 -0.098 57.452 7.402 C 44.493 15.004 36.021 26.105 32.131 40.703 C 31.535 43.004 31.037 45.203 30.635 47.402 C 38.411 43.402 45.989 41.605 53.465 41.902 C 56.253 35.105 61.038 29.805 67.619 25.902 C 75.69 21.305 84.265 20.105 93.337 22.504 C 102.406 25.004 109.286 30.203 113.869 38.305 C 117.658 44.902 119.052 51.805 118.257 59.105 C 124.437 62.504 130.118 68.203 135.203 75.902 C 136.099 73.703 136.897 71.504 137.594 69.105 C 141.281 54.504 139.486 40.504 131.913 27.402" clip-path="url(#clip2)" clip-rule="nonzero"/><path style="stroke: none; fill-rule: nonzero; fill: rgb(255, 255, 255); fill-opacity: 1; stroke-width: 1px;" d="M 50.933 108.102 L 85.335 108.102 C 84.835 102.402 83.335 98.102 80.636 95.301 C 77.733 92.305 73.534 90.805 68.136 90.805 C 63.233 90.805 59.136 92.305 56.034 95.301 C 52.835 98.402 51.136 102.602 50.933 108.102 M 91.433 133.004 L 108.335 133.004 C 105.835 141.902 101.136 148.703 94.136 153.402 C 87.136 158.301 78.433 160.703 67.835 160.703 C 55.034 160.703 45.034 156.801 37.835 148.902 C 30.636 141.203 27.034 130.301 27.034 116.004 C 27.034 102.402 30.534 91.805 37.534 84.105 C 44.733 76.203 54.733 72.305 67.534 72.305 C 81.034 72.305 91.534 76.105 98.933 83.805 C 106.136 91.703 109.733 102.602 109.733 116.703 L 109.733 120.203 C 109.733 121.301 109.636 122.004 109.433 122.402 L 51.034 122.402 C 51.233 129.004 52.933 133.902 56.136 137.102 C 59.034 140.504 63.433 142.203 69.335 142.203 C 73.136 142.203 76.433 141.504 79.136 140.004 C 79.835 139.801 80.433 139.402 81.034 138.902 C 81.636 138.402 82.233 137.801 82.933 137.102 C 83.136 136.504 84.034 135.602 85.433 134.602 C 86.636 133.602 88.733 133.004 91.433 133.004"/>
</svg>
